icons/vscode.svg

<svg height="2500" viewBox="0 0 234 235.1" width="2488" xmlns="http://www.w3.org/2000/svg"><path d="m83.3 143.9-58 45.2-25.3-12.6v-117.8l25.2-12.7 57.6 45.3 91.2-91.3 60 23.9v186.9l-59.7 24.3zm88.9 15.9v-84.5l-54.6 42.3zm-144.9-15.2 28.7-26.1-28.7-28.6z" fill="#0179cb"/></svg>

<svg id="Layer_1" xmlns="http://www.w3.org/2000/svg" viewBox="0 0 234 235.1" width="2488" height="2500"><style>.st0{fill:#0179cb}</style><path class="st0" d="M83.3 143.9l-58 45.2L0 176.5V58.7L25.2 46l57.6 45.3L174 0l60 23.9v186.9l-59.7 24.3-91-91.2zm88.9 15.9V75.3l-54.6 42.3 54.6 42.2zM27.3 144.6L56 118.5 27.3 89.9v54.7z"/></svg>
